!!!COM: Beethoven, Ludwig van
!!!CDT: 1770///-1827///
!!!OTL: Piano Sonata no. 21 in C major
!!!OTP: Waldstein
!!!ODT: 1803///-1804///
!!!ODE: Graf Ferdinand von Waldstein
!!!OPS: 53
!!!OMV: 2
!!!OMD: Introduzione: Adagio molto
**kern	**kern	**dynam
*staff2	*staff1	*staff1/2
*Ipiano	*Ipiano	*Ipiano
*clefF4	*clefF4	*clefF4
*k[b-]	*k[b-]	*k[b-]
*F:	*F:	*F:
*M6/8	*M6/8	*M6/8
*MM40	*MM40	*MM40
=1-	=1-	=1-
4.FFF/ 4.FF/	8r	pp
.	16.C\LL	.
.	32C\JJk	.
.	8A\	.
4.FFF/ 4.FF/	8r	.
.	16.A\LL	.
.	32A\JJk	.
.	8d#\	.
=2	=2	=2
8r	8r	.
(8EE'/ 8E'/L	8G#'\ 8Bn'\ (8e'\L	.
8EE'/) 8E'/J	8G#'\ 8B'\ 8e'\J)	.
4EE/ 4E/	4G#\ 4B\ 4e\	.
8r	8r	.
*	*clefG2	*clefG2
=3	=3	=3
4.EE/ 4.E/	8r	.
.	16.Bn/LL	.
.	32B/Jk	.
.	8g/J	.
4.EE/ 4.E/	8r	.
.	16.c#/LL	.
.	32c#/Jk	.
.	8a#/J	.
=4	=4	=4
8r	8r	.
(8DD#'/ 8BBn'/ 8D#'/L	(8Bn'/ 8f#'/ 8bn'/L	.
8DD#'/) 8BB'/ 8D#'/J	8B'/) 8f#'/ 8b'/J	.
4DD#/ 4BB/ 4D#/	4B/ 4f#/ 4b/	.
8r	8r	.
=5	=5	=5
4.DDn/ (4.Dn/	8r	.
.	16.fn/LL	<
.	32f/Jk	.
.	8bn/J	.
4.DD-/ 4.D-/)	8r	.
.	16.b\LL	.
.	32b\Jk	.
.	[8ff\J	.
=6	=6	=6
*	*^	*
8CC/ 8C/L	4.r	8ff\L]	.
8CC/ 8C/	.	(8ee\	.
8CC/ 8C/J	.	8gg\J)	.
4CC/ 4C/	4b-/	4e^\	.
8r	8r	8r	.
*	*v	*v	*
=7	=7	=7
8r	8r	.
8DD/ 8D/L	(8f/ 8a/L	p
8DD/ 8D/J	8a/ 8ff/J	.
4DD/ 4D/	4f/) 4a/	.
8r	8r	.
=8	=8	=8
8BBB-/ 8BB-/	8r	.
8r	8B-/ 8d/ 8g/	>
8r	8r	.
8CC/ 8C/	8r	.
8r	8G/ 8B-/ 8e/	.
8r	8r	.
=9	=9	=9
8FFF/ 8FF/L	8r	.
8FFF/ 8FF/	(8A/ 8c/ 8f/L	pp
8FFF/ 8FF/J	8A/ 8c/ 8a/J	.
4FFF/ 4FF/	4A/) 4c/ 4f/	.
*	*clefF4	*clefF4
8r	16.C/LL	.
.	32C/JJk	.
=10	=10	=10
*^	*	*
.	.	Cq/	.
8.FF/ 8.C/L	4.r	8.A\L	.
16EE'/ 16C'/L	.	(16G'\L	.
16FF'/ 16C'/	.	16A'\	.
16GG'/ 16C'/JJ	.	16B-'\JJ)	.
16GG#/ 16C/LK	4r	16Bn\LK	.
8AA/ 8C/	.	8c\	.
8BB-/ 8C/	.	(8d\	.
.	16r	.	.
16C/Jk	32GGn'\LLL	32B-\LL	.
.	32FF\JJJ	32A\JJJ	.
*v	*v	*	*
=11	=11	=11
8.EE/ 8.C/	16G\)	>
*	*clefG2	*
.	(16f#'/LL	.
.	16g'/	.
16F#'\ (16c'\LL	16a'/	p
16G'\ 16c'\	16b-'/JJ)	.
16A'\ 16c'\JJ	(16ff#'\	.
16B-'\ 16c'\)	16gg'\LL	.
(16FF#'/LL	16aa'\	.
16GG'/	16bb-'\JJ)	.
16AA'/	16r	.
*	*clefF4	*
16BB-'/	16.C/LL	.
16GG'/JJ)	.	.
.	32C/JJk	.
=12	=12	=12
.	Cq/	.
16EE/LK	8.B-\L	.
8GG/ 8C/	.	.
*	*^	*
16FF#'/ 16C'/L	8.r	(16A'\L	.
16GG'/ 16C'/	.	16B-'\	.
16AA'/ 16C'/JJ	.	16c'\JJ)	.
16AA/ 16C/LK	16c#/LK	16r	.
8BB-/ 8C/	8d/	8r	.
8EE/ 8C/	(8cn/	8G\L	>
16CC/ 16C/Jk	32d/LL	16E\Jk	.
.	32B-/JJJ	.	.
=13	=13	=13	=13
8.FF/ 8.C/	16A/)	16F\	.
*	*v	*v	*
*	*clefG2	*clefG2
*	*^	*
.	(16g#'/LL	8.r	p
.	16a'/	.	.
(16G#'\LL	16bn'/JJ	.	.
16A'\	16cc'/)	16r	.
16Bn'\JJ	16r	(16gg#'\	.
16c'\)	8.r	16aa'\LL	.
(16GG#'/LL	.	16bbn'\	.
16AA'/	.	16ccc'\JJ)	<
16BBn'/	16r	16r	.
16C'/	8r	16.cc\LL	.
16BB-'/JJ)	.	.	.
.	.	32cc\JJk	.
=14	=14	=14	=14
*^	*	*	*
8r	8AA\L	(8f/L	4f\	.
8c/L	8A\	16.ff/L	.	.
.	.	32ff/Jk	.	.
[8c/J	8B-\J	8ee/J	[8g\	.
8c/L]	8E\L	8gg/L	8g\]	.
8G/	8C\	16.b-/L	8e\	.
.	.	32b-/JJk	.	.
*	*	*v	*v	*
.	.	b-q/)	.
*	*	*^	*
8A/J	8F\J	(32a/LLL	8f\	.
.	.	32g/	.	p
.	.	32a/	.	.
.	.	32cc/JJJ)	.	.
=15	=15	=15	=15	=15
8r	8r	8f/L	4f\	<
8c/L	8A\L	16.ff/L	.	.
.	.	32ff/Jk	.	.
[8c/J	8B-\J	8ee/J	[8g\	.
8c/L]	8E\L	(8gg/L	8g\L]	.
8G/	8C\	16.b-/L)	8e\	.
.	.	32b-/Jk	.	.
8F/J	8D\J	8a/J	8f\J	.
*v	*v	*	*	*
*	*v	*v	*
=16	=16	=16
8BBB-/ 8BB-/	8r	.
8r	8B-/ 8d/ 8g/	>
8r	8r	.
8CC/ 8C/	8r	.
8r	8G/ 8B-/ 8e/	.
8r	8r	.
*	*clefF4	*clefF4
=17	=17	=17
4.FF/	8r	.
.	16.C\LL	pp
.	32C\Jk	.
.	8A\J	.
4FFF/ [4FF/	8r	.
.	16.A\LL	.
.	32A\Jk	.
32FF/LLL]	8d#\J	.
(32AA/	.	.
32C/	.	.
32AA/JJJ)	.	.
=18	=18	=18
8EE/L	8e\L	.
(8EE'/ 8E'/	8G#'\ 8Bn'\ (8e'\	.
8EE'/) 8E'/J	8G#'\ 8B'\ 8e'\J)	.
4EE/ 4E/	8G#\ 8B\ 8e\L	<
.	(8Gn'\	.
8r	8G'\J)	.
*	*clefG2	*clefG2
=19	=19	=19
*^	*	*
4.G/	4.EE\ 4.E\	8r	.
.	.	16.Bn/LL	pp
.	.	32B/Jk	.
.	.	8g/J	.
[4EE/ [4E/	4.r	8r	.
.	.	16.c#/LL	.
.	.	32c#/Jk	<
32EE/] 32E/LLL]	.	8a#/J	.
(32E/	.	.	.
32G/	.	.	.
32E/JJJ)	.	.	.
=20	=20	=20	=20
4.r	8D#/L	8bn/L	.
.	(8DD#'/ 8BBn'/ 8D#'/	(8Bn'/ 8f#'/ 8b'/	.
.	8DD#'/) 8BB'/ 8D#'/J	8B'/) 8f#'/ 8b'/J	.
8r	8DD#/ 8BB/ 8D#/	8B/ 8f#/ 8b/	<
(8Fn'/L	8Dn\L	4r	.
8F'/J)	8D\J	.	.
*v	*v	*	*
=21	=21	=21
[4D\	8F\L	pp
.	16.fn\L	.
.	32f\Jk	.
32D\LLL]	[8bn\J	<
32F\	.	.
32A-\	.	.
32F\JJJ	.	.
[4D-\	8b\L]	.
.	16.b\L	.
.	32b\Jk	.
32D-\LLL]	[8ff\J	.
32F\	.	.
32A-\	.	.
32F\JJJ	.	.
=22	=22	=22
[4C\	8ff\L]	.
.	16.ff\L	.
.	32ff\Jk	.
32C\LLL]	[8aa-\J	.
32F\	.	.
32A-\	.	.
32F\JJJ	.	.
[4BBn\	8aa-\L]	.
.	16.ff\L	.
.	32ff\Jk	.
32BB\LLL]	[8ddd\J	.
32F\	.	.
32A-\	.	.
32F\JJJ	.	.
=23	=23	=23
[4AA-\	8ddd\L]	.
.	16.ff\L	.
.	32ff\Jk	.
32AA-\LLL]	[8fff\J	.
32F\	.	.
32Bn\	.	.
32F\JJJ	.	.
[4GG\	8fff\L]	.
.	16.ff\L	.
.	32ff\Jk	.
32GG\LLL]	[8fff\J	.
32F\	.	.
32B\	.	.
32F\JJJ	.	.
=24	=24	=24
[4AA-\	8fff\L]	.
.	16.ff\L	.
.	32ff\Jk	.
32AA-\LLL]	[8fff\J	.
32F\	.	.
32Bn\	.	.
32F\JJJ	.	.
32AA-\LLL	16.fff\]	>
32F\	.	.
32B\	.	.
32F\JJJ	(32ff\LLL	.
32AA-\LLL	32fff\JJJ)	.
32F\	32r	.
32B\	32r	.
32F\JJJ	(32dd\LLL	.
32AA-\LLL	32ddd\JJJ)	.
32F\	32r	.
32B\	32r	.
32F\JJJ	(32bn\	.
=25	=25	=25
32GG\LLL	32bbn\)	.
32F\	32r	.
32Bn\	32r	.
32F\JJJ	32f\LLL	.
32GG/LLL	32ff\JJJ	.
32D/	32r	.
32F/	32r	.
32D/JJJ	32d/LLL	.
32GG/LLL	32dd/JJJ	.
32BBn/	32r	.
32D/	32r	.
32BB/JJJ	(32Bn/LLL	.
32GG/LLL	32bn/JJJ)	.
32BB/	32r	.
32D/	32r	.
*	*clefF4	*clefF4
32BB/JJJ	(32F\LLL	.
32GG/LLL	32f\JJJ)	.
32BB/	32r	.
32D/	32r	.
32BB/JJJ	(32D\LLL	.
32GG/LLL	32d\JJJ)	.
32DD/	32r	.
32BBBn/	32r	.
32DD/JJJ	(32BBn/	.
=26	=26	=26
8GGG/L	8Bn\L)	pp
8GGG'/ 8GG'/	8BBn'\ 8D'\ (8F'\	.
8GGG'/ 8GG'/J	8BB'\ 8D'\ 8F'\J)	.
4GGG#/ 4GG#/	4BB\ 4D\ 4F\	.
*	*clefG2	*clefG2
8r	(8ff\	.
=27	=27	=27
8r	8ee\)	.
*	*clefF4	*clefF4
8AAA'/ 8AA'/L	8C'\ (8E'\L	.
8AAA'/ 8AA'/J	8C'\ 8E'\J)	.
4AAA/ 4AA/	4C\ 4E\	.
*	*clefG2	*clefG2
8r	(8ee\	.
=28	=28	=28
8FFF/ 8FF/	8dd\)	.
*	*clefF4	*clefF4
8r	8D\ 8F\ 8A\	.
*	*clefG2	*clefG2
8r	(8dd\L	.
8GGG/ 8GG/	8gg\J)	.
*	*clefF4	*clefF4
8r	8BBn\ 8D\ 8G\	.
*	*clefG2	*clefG2
8r;	8gg;\	.
=	=	=
*-	*-	*-
!!!ENC: Craig Stuart Sapp
!!!END: 2008/02/19/
